Catalina-light/actions/22/mail-message-new-list.svg

<svg xmlns="http://www.w3.org/2000/svg" viewBox="0 0 22 22">
  <defs id="defs3051">
    <style type="text/css" id="current-color-scheme">
      .ColorScheme-Text {
        color:#4d4d4d
      }
      </style>
  </defs>
 <path 
     style="fill:currentColor;fill-opacity:1;stroke:none"      
	 class="ColorScheme-Text"
        d="M 3.12476,19 C 2.5014933,19 2,18.490567 2,17.85742 2,17.22428 2.5014933,16.714847 3.12476,16.714847 l 15.75048,0 C 19.498513,16.714847 20,17.22428 20,17.85742 20,18.490567 19.498513,19 18.87524,19 L 3.12476,19 Z m 0,-4.572267 C 2.5014933,14.427733 2,13.9183 2,13.28516 2,12.652013 2.5014933,12.14258 3.12476,12.14258 l 15.75048,0 c 0.623273,0 1.12476,0.509433 1.12476,1.14258 0,0.63314 -0.501487,1.142573 -1.12476,1.142573 l -15.75048,0 z m 0,-4.570313 C 2.5014933,9.85742 2,9.347987 2,8.714847 2,8.0817 2.5014933,7.572267 3.12476,7.572267 l 15.75048,0 C 19.498513,7.572267 20,8.0817 20,8.714847 20,9.347987 19.498513,9.85742 18.87524,9.85742 l -15.75048,0 z m 0,-4.5722667 C 2.5014933,5.2851533 2,4.77572 2,4.14258 2,3.5094333 2.5014933,3 3.12476,3 L 18.87524,3 C 19.498513,3 20,3.5094333 20,4.14258 20,4.77572 19.498513,5.2851533 18.87524,5.2851533 l -15.75048,0 z"
     />
</svg>

<svg viewBox="0 0 22 22" xmlns="http://www.w3.org/2000/svg">
<defs>
<style id="current-color-scheme" type="text/css">.ColorScheme-Text {
        color:#363636
      }</style>
</defs>
<path class="ColorScheme-Text" d="m3.1248 19c-0.62327 0-1.1248-0.50943-1.1248-1.1426 0-0.63314 0.50149-1.1426 1.1248-1.1426h15.75c0.62327 0 1.1248 0.50943 1.1248 1.1426 0 0.63315-0.50149 1.1426-1.1248 1.1426h-15.75zm0-4.5723c-0.62327 0-1.1248-0.50943-1.1248-1.1426 0-0.63315 0.50149-1.1426 1.1248-1.1426h15.75c0.62327 0 1.1248 0.50943 1.1248 1.1426 0 0.63314-0.50149 1.1426-1.1248 1.1426h-15.75zm0-4.5703c-0.62327 0-1.1248-0.50943-1.1248-1.1426 0-0.63315 0.50149-1.1426 1.1248-1.1426h15.75c0.62327 0 1.1248 0.50943 1.1248 1.1426 0 0.63314-0.50149 1.1426-1.1248 1.1426h-15.75zm0-4.5723c-0.62327 0-1.1248-0.50943-1.1248-1.1426 0-0.63315 0.50149-1.1426 1.1248-1.1426h15.75c0.62327 0 1.1248 0.50943 1.1248 1.1426 0 0.63314-0.50149 1.1426-1.1248 1.1426h-15.75z" fill="#363636"/>
</svg>
